app/content/themes/irontheme/images/general/drill.svg

<svg width="52" height="52" viewBox="0 0 52 52" fill="none" xmlns="http://www.w3.org/2000/svg">
<path d="M50.4766 21.4297H44.9123L42.3115 18.829C42.0259 18.5433 41.6384 18.3828 41.2344 18.3828H35.1406C34.2993 18.3828 33.6172 19.0649 33.6172 19.9062V35.1406C33.6172 39.3407 30.2001 42.7578 26 42.7578C21.7999 42.7578 18.3828 39.3407 18.3828 35.1406V19.9062C18.3828 19.0649 17.7007 18.3828 16.8594 18.3828H10.7656C10.3616 18.3828 9.97415 18.5433 9.68845 18.829L7.08774 21.4297H1.52344C0.682094 21.4297 0 22.1118 0 22.9531V50.4766C0 51.3179 0.682094 52 1.52344 52H50.4766C51.3179 52 52 51.3179 52 50.4766V22.9531C52 22.1118 51.3179 21.4297 50.4766 21.4297ZM48.9531 30.5703H47.3281C46.4868 30.5703 45.8047 31.2524 45.8047 32.0938C45.8047 32.9351 46.4868 33.6172 47.3281 33.6172H48.9531V42.7578H47.3281C46.4868 42.7578 45.8047 43.4399 45.8047 44.2812C45.8047 45.1226 46.4868 45.8047 47.3281 45.8047H48.9531V48.9531H3.04688V45.8047H4.67188C5.51322 45.8047 6.19531 45.1226 6.19531 44.2812C6.19531 43.4399 5.51322 42.7578 4.67188 42.7578H3.04688V33.6172H4.67188C5.51322 33.6172 6.19531 32.9351 6.19531 32.0938C6.19531 31.2524 5.51322 30.5703 4.67188 30.5703H3.04688V24.4766H7.71875C8.12277 24.4766 8.51023 24.3161 8.79592 24.0304L11.3966 21.4297H15.3359V27.5234H13.8125C12.9712 27.5234 12.2891 28.2055 12.2891 29.0469C12.2891 29.8882 12.9712 30.5703 13.8125 30.5703H15.3359V35.1406C15.3359 41.0208 20.1198 45.8047 26 45.8047C31.8802 45.8047 36.6641 41.0208 36.6641 35.1406V30.5703H38.1875C39.0288 30.5703 39.7109 29.8882 39.7109 29.0469C39.7109 28.2055 39.0288 27.5234 38.1875 27.5234H36.6641V21.4297H40.6034L43.2041 24.0304C43.4898 24.3161 43.8772 24.4766 44.2812 24.4766H48.9531V30.5703Z" fill="url(#paint0_linear)"/>
<path d="M32.0935 0H19.906C18.6904 0 17.9651 1.3585 18.6384 2.36854L21.4295 6.55505V10.7656C21.4295 12.7517 22.7032 14.445 24.4763 15.0739V20.4882L22.2716 21.5906C21.519 21.9669 21.214 22.8819 21.5903 23.6345C21.9668 24.3873 22.882 24.692 23.6343 24.3158L24.4764 23.8947V26.582L22.2717 27.6843C21.5191 28.0606 21.2141 28.9757 21.5904 29.7283C21.9669 30.481 22.8821 30.7857 23.6344 30.4095L24.4765 29.9885V32.6757L22.2718 33.7781C21.5192 34.1544 21.2143 35.0694 21.5905 35.822C21.967 36.575 22.8823 36.8795 23.6345 36.5033L24.4766 36.0822V38.1875C24.4766 39.0288 25.1587 39.7109 26.0001 39.7109C26.8414 39.7109 27.5235 39.0288 27.5235 38.1875V34.5588L29.7282 33.4564C30.4808 33.0801 30.7858 32.165 30.4095 31.4125C30.0332 30.66 29.118 30.355 28.3656 30.7312L27.5232 31.1522V28.4649L29.7279 27.3626C30.4805 26.9863 30.7855 26.0712 30.4092 25.3186C30.0329 24.5661 29.1177 24.261 28.3653 24.6373L27.5232 25.0584V22.3712L29.7279 21.2688C30.4805 20.8925 30.7855 19.9774 30.4092 19.2249C30.0329 18.4724 29.1177 18.1674 28.3653 18.5436L27.5232 18.9647V15.0738C29.2964 14.4449 30.5701 12.7516 30.5701 10.7655V6.55505L33.3611 2.36854C34.0354 1.35698 33.3074 0 32.0935 0ZM27.779 5.24865C27.6122 5.499 27.5232 5.79302 27.5232 6.09375V10.7656C27.5232 11.6056 26.8398 12.2891 25.9998 12.2891C25.1597 12.2891 24.4763 11.6056 24.4763 10.7656V6.09375C24.4763 5.79302 24.3874 5.499 24.2205 5.24865L22.7526 3.04688H29.2469L27.779 5.24865Z" fill="url(#paint1_linear)"/>
<path d="M44.2812 36.6641H41.2344C40.393 36.6641 39.7109 37.3462 39.7109 38.1875C39.7109 39.0288 40.393 39.7109 41.2344 39.7109H44.2812C45.1226 39.7109 45.8047 39.0288 45.8047 38.1875C45.8047 37.3462 45.1226 36.6641 44.2812 36.6641Z" fill="url(#paint2_linear)"/>
<path d="M10.7656 36.6641H7.71875C6.87741 36.6641 6.19531 37.3462 6.19531 38.1875C6.19531 39.0288 6.87741 39.7109 7.71875 39.7109H10.7656C11.607 39.7109 12.2891 39.0288 12.2891 38.1875C12.2891 37.3462 11.607 36.6641 10.7656 36.6641Z" fill="url(#paint3_linear)"/>
<defs>
<linearGradient id="paint0_linear" x1="52" y1="35.1914" x2="2.21288e-07" y2="35.1914" gradientUnits="userSpaceOnUse">
<stop stop-color="#2063B1"/>
<stop offset="1" stop-color="#3CBAFC"/>
</linearGradient>
<linearGradient id="paint1_linear" x1="33.6188" y1="19.8555" x2="18.3809" y2="19.8555" gradientUnits="userSpaceOnUse">
<stop stop-color="#2063B1"/>
<stop offset="1" stop-color="#3CBAFC"/>
</linearGradient>
<linearGradient id="paint2_linear" x1="45.8047" y1="38.1875" x2="39.7109" y2="38.1875" gradientUnits="userSpaceOnUse">
<stop stop-color="#2063B1"/>
<stop offset="1" stop-color="#3CBAFC"/>
</linearGradient>
<linearGradient id="paint3_linear" x1="12.2891" y1="38.1875" x2="6.19531" y2="38.1875" gradientUnits="userSpaceOnUse">
<stop stop-color="#2063B1"/>
<stop offset="1" stop-color="#3CBAFC"/>
</linearGradient>
</defs>
</svg>

<svg width="52" height="52" viewBox="0 0 52 52" fill="none" xmlns="http://www.w3.org/2000/svg"><path d="M50.477 21.43h-5.565l-2.6-2.601a1.523 1.523 0 00-1.078-.446h-6.093c-.842 0-1.524.682-1.524 1.523v15.235c0 4.2-3.417 7.617-7.617 7.617s-7.617-3.417-7.617-7.617V19.906c0-.841-.682-1.523-1.524-1.523h-6.093c-.404 0-.792.16-1.078.446l-2.6 2.6H1.523c-.84 0-1.523.683-1.523 1.524v27.524C0 51.317.682 52 1.523 52h48.954c.84 0 1.523-.682 1.523-1.523V22.953c0-.841-.682-1.523-1.523-1.523zm-1.524 9.14h-1.625a1.523 1.523 0 000 3.047h1.625v9.14h-1.625a1.523 1.523 0 000 3.048h1.625v3.148H3.047v-3.148h1.625a1.523 1.523 0 000-3.047H3.047v-9.14h1.625a1.523 1.523 0 000-3.048H3.047v-6.093h4.672c.404 0 .791-.16 1.077-.447l2.6-2.6h3.94v6.093h-1.524a1.523 1.523 0 000 3.047h1.524v4.57c0 5.88 4.784 10.665 10.664 10.665S36.664 41.02 36.664 35.14v-4.57h1.523a1.523 1.523 0 000-3.048h-1.523V21.43h3.94l2.6 2.6c.286.286.673.447 1.077.447h4.672v6.093z" fill="url(#paint0_linear)"/><path d="M32.093 0H19.907c-1.216 0-1.94 1.359-1.268 2.369l2.791 4.186v4.21a4.578 4.578 0 003.047 4.309v5.414l-2.204 1.103a1.523 1.523 0 101.362 2.725l.842-.421v2.687l-2.204 1.102a1.523 1.523 0 101.362 2.726l.843-.422v2.688l-2.205 1.102a1.523 1.523 0 101.363 2.725l.842-.42v2.105a1.523 1.523 0 003.046 0v-3.63l2.205-1.102a1.523 1.523 0 10-1.362-2.725l-.843.421v-2.687l2.205-1.102a1.523 1.523 0 00-1.363-2.726l-.842.421v-2.687l2.205-1.102a1.523 1.523 0 10-1.363-2.725l-.842.42v-3.89a4.577 4.577 0 003.047-4.309v-4.21l2.791-4.186C34.035 1.357 33.307 0 32.094 0zM27.78 5.249a1.52 1.52 0 00-.256.845v4.672a1.524 1.524 0 01-3.047 0V6.094c0-.301-.089-.595-.255-.845l-1.468-2.202h6.494L27.78 5.249z" fill="url(#paint1_linear)"/><path d="M44.281 36.664h-3.047a1.523 1.523 0 100 3.047h3.047a1.523 1.523 0 100-3.047z" fill="url(#paint2_linear)"/><path d="M10.766 36.664H7.719a1.523 1.523 0 000 3.047h3.047a1.523 1.523 0 100-3.047z" fill="url(#paint3_linear)"/><defs><linearGradient id="paint0_linear" x1="52" y1="35.191" x2="0" y2="35.191" gradientUnits="userSpaceOnUse"><stop stop-color="#2063B1"/><stop offset="1" stop-color="#3CBAFC"/></linearGradient><linearGradient id="paint1_linear" x1="33.619" y1="19.855" x2="18.381" y2="19.855" gradientUnits="userSpaceOnUse"><stop stop-color="#2063B1"/><stop offset="1" stop-color="#3CBAFC"/></linearGradient><linearGradient id="paint2_linear" x1="45.805" y1="38.188" x2="39.711" y2="38.188" gradientUnits="userSpaceOnUse"><stop stop-color="#2063B1"/><stop offset="1" stop-color="#3CBAFC"/></linearGradient><linearGradient id="paint3_linear" x1="12.289" y1="38.188" x2="6.195" y2="38.188" gradientUnits="userSpaceOnUse"><stop stop-color="#2063B1"/><stop offset="1" stop-color="#3CBAFC"/></linearGradient></defs></svg>
